X:1
T:Contre raison trop m'as voulu
T:Contre raison trop m'as voulu
T:Anonymus
C:Anonymus
%%score [ 1 [ 2 3 ] 4 ]
L:1/8
Q:1/4=120
M:2/2
K:F
V:1 treble nm="Soprano" snm="S"
V:2 treble-8 nm="Tenor 1" snm="T 1"
V:3 treble-8 nm="Tenor 2" snm="T 2"
V:4 bass nm="Bass" snm="B"
V:1
 z8 | z8 | c6 G2 | B4 A2 A2 | c2 c2 B2 G2 | d4 c4 | z2 G2 B2 B2 | A2 F2 c3 B | GABA GF G2- | %9
w: ||Con- tre|rai- son trop|m'as vou- lu mef-|fai- re,|con- tre rai-|son trop m'as vou-|lu _ _ _ _ _ m'ef-|
 GF F4 E2 | F4 z2 F2 | F2 G2 A4 | G2 B3 AGF | E2 E2 G2 G2 | A2 c3 B BA/B/ | c2 c2 c2 c2 | %16
w: * * fai- *|re, d'une-|aul- tre pren-||dre et de moy|te def- * fai- * *|re vue que ja-|
 A4 B2 B2 | G3 F G2 A2- | AG G4 F2 | G4 z2 A2 | B4 G4 | F8 | z2 G2 B2 A2 | G2 FE F4 | %24
w: mais que toy|n'ay _ _ seu-|* * * choi-|sir pour|mon a-|my,|mais ay mis|mon _ _ de-|
[M:2/4] E2 c2- |[M:3/2] c4 G4 B4- | B4 F4 A4 | c4 c4 B4- | B2 A2 F2 G2 A4- | A4 G6 F2 | F8 E4 | %31
w: sir à|_ te ser-|* vir sans|en rien te|_ _ _ _ for-||fai- *|
 F12 |] %32
w: re.|
V:2
 z8 | z4 f4- | f2 c2 e4 | d2 d2 f2 f2 | e2 c2 g4 | f2 f2 a2 a2 | g2 e2 dcde | f3 e cd _e2- | %8
w: |Con-|* tre rai-|son trop m'as vou-|lu mef- fai-|re, con- tre rai-|son trop m'as _ _ _|_ vou- lu _ _|
 edBc d4 | c6 c/B/A/G/ | A4 z2 c2 | d3 e f2 e2 | z2 g2 g2 g2 | c2 c2 B4 | c4 z2 g2 | %15
w: _ _ _ _ m'ef-|fai- * * * *|re, d'une|aul- tre pre- dre|et de moy|te def- fai-|re veu|
 e2 e2 f3 e/d/ | c2 d2 B4 |"^b" c3 d e2 c2 | e4 d4 | B4 z2 f2 | f4 e4 | d3 c B2 A2 | G4 z2 A2 | %23
w: que ja- mais _ _|_ que toy|n'ay _ _ sceu|choi- *|sir pour|mon a-|my, _ _ _|_ mais|
 B2 A2 F2 F2 |[M:2/4] G4 |[M:3/2] z4 g8 | d4 f4 c4 | z4 g4 g4 | d4 f6 e2 | c2 d2 _e4 c4 | B4 c8 | %31
w: ay- mis mon de-|sir|à|te ser- vir|sans en|rien te _|_ _ _ _|for- fai-|
 c12 |] %32
w: re.|
V:3
 z4 c4- | c2 G2 B4 | A2 A2 c2 c2 | B2 G2 d4 | c4 z4 | d4 f2 f2 | e2 c2 g4 | d4 z4 | G4 B2 B2 | %9
w: Con-|* tre rai-|son trop m'as vou-|lu mef- fai-|re,|trop m'as vou-|lu m'ef- fai-|re,|trop m'as vou-|
 A2 F2 G4 | F4 z4 | B4 c3 d | _e4 d4 | z2 c2 d2 e2 | ff ed/c/ d4 | c4 z2 f2 | f2 f2 d4 | e4 c3 A | %18
w: lu m'ef- fai-|re,|d'une aul- tre|pren- dre|et de moy|te def- fai- * * *|re veu|que ja- mais|que toy n'ay|
 B2 c2 A4 | G4 z2 c2 | d4 c4 | A2 A2 d4- | d2 c2 B2 d2- | dc c4 B2 |[M:2/4] c4- |[M:3/2] c8 z4 | %26
w: sceu _ choi-|sir pour|mon a-|my, mais ay|_ mis mon de-||sir|_|
 z4 f8 | c4 e4 d4- | d8 c4 | c6 B2 A4 | F4 G8 | F12 |] %32
w: à|te ser- vir|_ sans|en rien te|for- fai-|re.|
V:4
 F,6 C,2 | E,4 D,2 D,2 | F,2 F,2 E,3 C, | G,4 F,4 | z4 G,4 | B,2 B,2 A,2 F,2 | C4 G,4 | z4 C,4 | %8
w: Con- tre|rai- son trop-|m'as vou- lu mef-|fai- re,|trop-|m'as vou- lu m'ef-|fai- re,|trop|
"^b" E,2 E,2 D,2 B,,2 | F,4 C,4 | z2 F,2 G,2 A,2 | B,4 A,4 | z2 _E,2 G,2 G,2 | A,4 G,4 | %14
w: m'as vou- lu m'ef-|fai- re,|d'une aul- tre|pren- dre|et de moy|te def-|
 F,2 A,2 G,2 G,2 | A,6 F,2 | F,4 G,4 | C,6 F,2 |"^b" E,2 C,2 D,4 | _E,4 z2 F,2 | B,,4 C,4 | %21
w: fai- * re veu|que ja-|mais que|toy n'ay|sceu _ choi-|sir pour|mon a-|
 D,6 D,2 | G,6 F,2 | _E,2 D,C, D,4 |[M:2/4] C,4 |[M:3/2] C8 G,4 | B,4 F,6 G,2 | A,2 B,2 C4 G,4 | %28
w: my, mais|ay- mis|mon _ _ de-|sir|à te|ser- vir _|_ _ _ sans|
 B,6 A,2 F,2 G,2 |"^b" A,4 E,4 F,4 | D,4 C,8 | F,12 |] %32
w: en _ _ _|rien _ te|for- fai-|re.|

